X:1
T:At My Redeemer’s Feet
T:William James Kirkpatrick
T:At My Redeemer’s Feet
T:Public Domain
T:Public Domain
C:William James Kirkpatrick
Z:Public Domain
%%score ( 1 2 ) ( 3 4 )
L:1/8
M:4/4
K:G
V:1 treble 
V:2 treble 
V:3 bass 
V:4 bass 
V:1
 [B,D]2 | [DB]3 [DB] [DB][Dc][DF][FA] | ([FA]4 [EG]2) [=FG]2 | [EG]3 [DG] [Dc]2 [DB]2 | %4
w: 1.~I|ask not for the high- est|place, * But|find a spot more|
w: 2.~Tho’|waves of dark- ness round me|roll, * I|have a safe re-|
w: 3.~He|gives me from His lov- ing|hand, * The|fin- est of the|
w: 4.~And|when I reach the mys- tic|sea, * Where|earth and Heav- en|
 (z3 c/B/ [DA]2) [Fd]2 | [Gd]3 [DB] [^DB][DB][DA][DF] | ([^DA]4 [EG]2) [^A,E]2 | %7
w: * * * sweet,|* God be- stows on me|His * grace,|
w: * * * treat;|* storm can ev- er harm|a * soul,|
w: * * * wheat;|* live in Heav- en’s bor-|der * land,|
w: * * * meet,|* spend a blest e- ter-|ni- * ty,|
 [B,E]3 [B,D] [DB]2 [CA]2 | [B,G]6 ||"^Refrain" [DG]2 x4 | [DG]>[DF] [Fc]4 [CF]2 | %11
w: At my Re- deem-|er’s|feet.||
w: At my Re- deem-|er’s|feet.|Come joy or pain,|
w: At my Re- deem-|er’s|feet.||
w: At my Re- deem-|er’s|feet.||
 [B,E]>[B,D] [DB]4 [GB]2 | [G^c]3 [Fc] [FA]2 [Gc]2 | (F2 G2 F2) [Fc]2 | [GB]>[Gc] [Gd]4 [DB]2 | %15
w: ||||
w: come weal or woe,|In Christ I am|com- * * plete;|high- est place is|
w: ||||
w: ||||
 [DG]>D [C_E]4 [^CG]2 | [DG]3 [DF] [DE]2 [DF]2 | [DG]6 x2 |] x6 |] %19
w: ||||
w: ly- ing low, At|Re- deem- er’s feet.|||
w: ||||
w: ||||
V:2
 x2 | x8 | x8 | x8 | [DB]4 x4 | x8 | x8 | x8 | x6 || x6 | x8 | x8 | x8 | d6 x2 | x8 | x3/2 D/ x6 | %16
w: ||||Where||||||||||||
w: ||||No|||||||||My||my|
w: ||||I||||||||||||
w: ||||I’ll||||||||||||
 x8 | x8 |] x6 |] %19
w: |||
w: |||
w: |||
w: |||
V:3
 G,2 | G,3 G, [D,F,][D,F,][D,A,][D,C] | [E,B,]6 [D,B,]2 | [C,C]3 [B,,G,] [A,,F,]2 [G,,G,]2 | %4
 (G,4 F,2) [D,C]2 | [G,B,]3 G, [B,,F,][B,,F,][B,,F,][B,,A,] | (F,4 E,2) [^C,G,]2 | %7
 [D,G,]3 [D,G,] [D,F,]2 x2 | [D,F,]2 x4 || [G,,G,]6 | [G,B,]2 x6 | [A,C]>[A,C] [A,D]4 [D,A,]2 | %12
 G,>G, G,4 [G,D]2 | [E,A,]3 [A,E] [A,E]2 A,2 | (A,2 _B,2 A,2) [D,D]2 | %15
 [G,D]>[G,C] [G,B,]4 [G,,G,]2 | [B,,G,]>[B,,G,] [C,G,]4 [_E,G,]2 | %17
 [D,B,]3 [D,A,] [D,G,]2 [D,A,]2 |] [G,,B,]6 |] %19
V:4
 G,2 | G,3 G, x4 | x8 | x8 | D,6 x2 | x3 G, x4 | ^C,6 x2 | x8 | x6 || x6 | x8 | x8 | G,>G, G,4 x2 | %13
 x6 A,2 | D,6 x2 | x8 | x8 | x8 |] x6 |] %19

